src/img/icons/junte-se a nos2.svg

<svg width="106" height="90" viewBox="0 0 106 90" fill="none" xmlns="http://www.w3.org/2000/svg">
<g clip-path="url(#clip0_337_3441)">
<path fill-rule="evenodd" clip-rule="evenodd" d="M35.2809 39.0346C34.7456 37.9888 32.6389 38.0143 32.0419 39.0346C31.4079 40.1185 31.4766 41.3306 32.0419 42.4317C32.556 43.4328 34.6392 43.6137 35.2809 42.4317C35.89 41.3095 35.8296 40.1061 35.2809 39.0346Z" fill="#FEFEFF"/>
<path fill-rule="evenodd" clip-rule="evenodd" d="M24.7331 39.0346C24.2074 37.9888 22.1392 38.0143 21.5533 39.0346C20.9308 40.1185 20.9982 41.3306 21.5533 42.4317C22.058 43.4328 24.1031 43.6137 24.7331 42.4317C25.3311 41.3095 25.2715 40.1061 24.7331 39.0346Z" fill="#FEFEFF"/>
<path fill-rule="evenodd" clip-rule="evenodd" d="M28.5178 48.6542C28.2704 48.6572 27.9849 48.8123 27.8299 48.9163C26.4339 49.8533 24.7648 49.987 22.8914 49.2709C21.216 48.6306 22.1315 46.2255 23.1124 46.6415C24.8654 47.385 25.6438 46.7284 27.6021 45.6209C27.8895 45.4582 28.316 45.4427 28.4936 45.4424C28.4962 45.4424 28.4985 45.4424 28.5011 45.4424C28.6787 45.4427 29.1052 45.4582 29.3927 45.6209C31.3508 46.7284 32.0895 47.2855 33.8825 46.6415C35.1259 46.195 35.827 48.6306 34.1516 49.2709C32.278 49.987 30.6089 49.8533 29.2131 48.9163C29.0581 48.8123 28.7726 48.6572 28.5252 48.6542C28.5227 48.654 28.5203 48.654 28.5178 48.6542Z" fill="#FEFEFF"/>
<path fill-rule="evenodd" clip-rule="evenodd" d="M74.2626 39.8764C74.798 38.8306 76.9047 38.856 77.5016 39.8764C78.1357 40.9603 78.0669 42.1724 77.5016 43.2735C76.9875 44.2746 74.9043 44.4555 74.2626 43.2735C73.6534 42.1513 73.714 40.9479 74.2626 39.8764Z" fill="#FEFEFF"/>
<path fill-rule="evenodd" clip-rule="evenodd" d="M84.8112 39.8764C85.3369 38.8306 87.4051 38.856 87.991 39.8764C88.6135 40.9603 88.5461 42.1724 87.991 43.2735C87.4863 44.2746 85.4412 44.4555 84.8112 43.2735C84.2132 42.1513 84.2728 40.9479 84.8112 39.8764Z" fill="#FEFEFF"/>
<path fill-rule="evenodd" clip-rule="evenodd" d="M81.0254 49.496C81.2728 49.499 81.5583 49.6541 81.7132 49.7581C83.1093 50.6951 84.7784 50.8288 86.6518 50.1127C88.3272 49.4724 87.4117 47.0673 86.4308 47.4833C84.6777 48.2268 83.8994 47.5702 81.941 46.4626C81.6537 46.3 81.2272 46.2845 81.0494 46.2842C81.047 46.2842 81.0447 46.2842 81.0421 46.2842C80.8645 46.2845 80.438 46.3 80.1505 46.4626C78.1923 47.5702 77.4537 48.1273 75.6607 47.4833C74.4173 47.0368 73.7162 49.4724 75.3916 50.1127C77.265 50.8288 78.9343 50.6951 80.3301 49.7581C80.4851 49.6541 80.7706 49.499 81.0179 49.496C81.0205 49.4958 81.0229 49.4958 81.0254 49.496Z" fill="#FEFEFF"/>
<path fill-rule="evenodd" clip-rule="evenodd" d="M90.4442 82.7039C93.2694 80.7886 95.2514 77.8391 95.4324 73.8614C95.5159 72.0296 95.2216 69.8536 93.3235 67.3942C91.1458 64.5722 87.3964 61.2767 89.6396 53.6227C89.987 52.4378 91.2409 51.7549 92.4382 52.0985C92.5887 52.1418 92.7313 52.1992 92.8649 52.2689C94.4292 52.8831 95.6711 52.9963 96.6136 52.5085C98.1617 51.7074 98.6435 49.6314 98.6348 47.2349C98.6078 39.7376 92.6459 28.7949 81.065 28.7949C67.9957 28.7949 62.3581 39.6851 62.786 47.0833C62.9231 49.4565 63.5847 51.4964 65.1911 52.2186C66.1997 52.672 67.484 52.4772 69.0556 51.7209C70.1765 51.1814 71.5294 51.6443 72.0745 52.7538C72.6195 53.8632 72.152 55.202 71.0309 55.7415C67.9146 57.2411 65.3232 57.1881 63.3229 56.289C60.4141 54.9813 58.5246 51.6362 58.276 47.3388C57.7401 38.0715 64.6938 24.3242 81.065 24.3242C95.5285 24.3242 103.118 37.8554 103.152 47.2189C103.168 51.5717 101.519 55.0152 98.7068 56.4702C97.3257 57.1849 95.6056 57.4854 93.5452 57.1061C93.2179 61.037 95.5804 62.9532 96.9135 64.6806C98.1137 66.2357 98.8667 67.7143 99.3243 69.1075C99.9359 68.9457 100.657 68.6622 101.135 67.9362C101.628 67.187 101.824 66.0586 101.663 64.3784C101.545 63.1502 102.458 62.0586 103.699 61.9423C104.94 61.826 106.043 62.7288 106.16 63.9568C106.493 67.4353 105.628 69.5615 104.513 70.9311C103.298 72.4239 101.066 73.2228 99.9616 73.5425C99.9585 73.7181 99.9529 73.8914 99.9451 74.0628C99.5062 83.7015 91.4853 89.1531 82.8525 89.771C74.2859 90.3842 65.318 86.1895 62.9228 77.0717C62.8175 76.6708 62.7532 75.4326 62.4432 73.8853C61.8969 71.1583 60.3513 67.1068 54.7437 66.9464C54.6418 66.9433 54.5416 66.9337 54.4436 66.9179C54.3574 66.9312 54.2694 66.9396 54.1801 66.9428C49.0879 67.1312 47.6318 70.8087 47.0995 73.2895C46.7946 74.7095 46.7218 75.8488 46.6218 76.2295C44.6868 83.5953 38.4662 87.7647 31.6173 88.5826C21.5655 89.7829 10.2575 83.7513 9.87354 70.3752C0.987767 66.0544 -3.98429 53.7741 2.02536 43.587C2.65397 42.5216 4.03827 42.1616 5.11482 42.7836C6.19119 43.4057 6.55509 44.7757 5.92648 45.8411C1.44013 53.4461 4.88566 62.5939 11.3693 66.1077C11.4394 65.9385 11.5076 65.7831 11.5729 65.6444C12.428 63.8292 13.7245 62.125 14.6421 60.3356C15.1386 59.3673 15.5237 58.3746 15.457 57.2738C15.3888 56.1471 14.8391 54.9507 13.6779 53.563C13.6426 53.5209 13.609 53.4776 13.577 53.4332C6.84992 46.5134 7.83477 34.9361 12.6814 26.4002C12.9931 25.8513 13.5244 25.4578 14.1445 25.3167C14.7646 25.1758 15.4162 25.3001 15.9388 25.6594C15.9388 25.6594 20.8464 29.0321 20.8464 29.0323C25.5803 27.9334 30.3143 27.832 35.0482 28.6881L40.2802 25.4432C40.8139 25.1122 41.4629 25.0167 42.0708 25.1799C42.6786 25.343 43.19 25.75 43.4816 26.3024C48.4403 35.6981 48.9528 45.3882 43.0936 52.7299C42.187 53.8659 41.0824 54.7432 40.0087 55.5612C39.021 56.3138 37.6016 56.1311 36.8412 55.1535C36.0807 54.1758 36.2655 52.7711 37.2532 52.0187C38.0438 51.4163 38.881 50.7955 39.5487 49.9589C43.8807 44.5309 43.6302 37.5291 40.5395 30.5584L36.6904 32.9455C36.1959 33.2523 35.6008 33.3577 35.0295 33.2396C30.346 32.272 25.6625 32.3773 20.9788 33.6072C20.3384 33.7754 19.6555 33.6567 19.1113 33.2826L15.4956 30.7976C12.5009 37.399 11.973 45.4823 16.9509 50.4537C17.0109 50.5137 17.3587 50.9947 17.3587 50.9947L17.1569 50.7113C19.1025 53.0362 19.8519 55.1185 19.9662 57.0061C20.0822 58.9198 19.5335 60.6755 18.6702 62.3588C17.775 64.1048 16.5014 65.7626 15.6673 67.5335C15.3371 68.2344 14.9125 69.5042 14.6773 70.6525C14.5856 71.1007 14.4854 71.5174 14.5055 71.8216C14.5099 71.8578 14.5144 71.894 14.519 71.9302C14.5207 71.9391 14.5225 71.9481 14.5246 71.9568C14.5555 72.0914 14.5736 72.2257 14.5794 72.3589C15.2144 76.4753 17.3206 79.5154 20.1171 81.4922C23.4798 83.0871 26.749 83.0265 26.7797 81.0354C26.8173 78.5952 26.7797 75.5523 26.7797 74.4603C26.7797 71.8115 31.3123 71.8115 31.3123 74.4603V81.1309C31.3123 82.9108 35.8784 83.2785 39.8641 79.709C40.9463 78.4418 41.7761 76.908 42.2499 75.1046C42.6303 73.6565 42.9235 62.8853 54.0115 62.4754C54.1649 62.4696 54.3153 62.4794 54.4613 62.503C54.5955 62.4823 54.7337 62.4735 54.8744 62.4776C62.3335 62.691 65.2239 67.2725 66.4311 71.2423C67.1019 73.4474 67.1575 75.4245 67.2946 75.9468C67.9847 78.5728 69.4176 80.6241 71.2856 82.1318C71.2844 82.1283 71.283 82.1247 71.2818 82.1212C74.8322 83.9985 79.2825 83.9062 79.3148 81.8043C79.3524 79.3643 79.3148 76.3213 79.3148 75.2292C79.3148 72.5805 83.8474 72.5805 83.8474 75.2292V81.9C83.8474 83.3388 87.073 84.247 90.4442 82.7039Z" fill="#FEFEFF"/>
<path fill-rule="evenodd" clip-rule="evenodd" d="M53.9235 6.59865C56.637 4.15978 60.5796 4.51671 62.7143 6.29425C65.1262 8.30279 65.4747 12.3113 63.0728 16.3265C61.8388 18.5128 59.0621 20.7409 56.329 22.4279C54.8603 23.3353 52.9866 23.3353 51.518 22.428C48.7853 20.7412 46.0093 18.5138 44.7771 16.3314C42.372 12.3131 42.7201 8.30329 45.1326 6.29425C47.2673 4.51671 51.2099 4.15978 53.9235 6.59865ZM52.5264 9.90305C51.1978 7.69029 48.5641 7.5881 47.2355 8.69456C46.6128 9.21311 46.3519 10.0108 46.3519 10.9183C46.3519 12.0879 46.7788 13.4167 47.5812 14.7533C47.5893 14.7668 47.5971 14.7803 47.6047 14.7939C48.618 16.6019 50.9897 18.3658 53.2503 19.761L53.2508 19.7614C53.6614 20.0151 54.1853 20.0151 54.596 19.7614L54.5966 19.761C56.8572 18.3658 59.2289 16.6019 60.2422 14.7939C60.2498 14.7803 60.2577 14.7668 60.2657 14.7533C61.0683 13.4167 61.4952 12.0879 61.4952 10.9183C61.4952 10.0108 61.2342 9.21311 60.6114 8.69456C59.2828 7.5881 56.6491 7.69029 55.3205 9.90305C55.0301 10.3867 54.4984 10.6841 53.9235 10.6841C53.3485 10.6841 52.8168 10.3867 52.5264 9.90305Z" fill="#FEFEFF"/>
</g>
<defs>
<clipPath id="clip0_337_3441">
<rect width="106" height="90" fill="white"/>
</clipPath>
</defs>
</svg>

<svg xmlns="http://www.w3.org/2000/svg" width="106" height="90" fill="none" viewBox="0 0 106 90"><g fill="#fefeff" fill-rule="evenodd" clip-path="url(#clip0_337_3441)" clip-rule="evenodd"><path d="M35.28 39.035c-.534-1.046-2.641-1.02-3.238 0-.634 1.084-.565 2.296 0 3.397.514 1 2.597 1.182 3.239 0 .609-1.123.549-2.326 0-3.397"/><path d="M24.733 39.035c-.526-1.046-2.594-1.02-3.18 0-.622 1.084-.555 2.296 0 3.397.505 1 2.55 1.182 3.18 0 .598-1.123.538-2.326 0-3.397"/><path d="M28.518 48.654c-.248.003-.533.158-.688.262-1.396.937-3.065 1.071-4.939.355-1.675-.64-.76-3.046.221-2.63 1.753.744 2.532.087 4.49-1.02.288-.163.714-.178.892-.179h.007c.178 0 .604.016.892.179 1.958 1.107 2.697 1.664 4.49 1.02 1.243-.446 1.944 1.99.269 2.63-1.874.716-3.543.582-4.939-.355-.155-.104-.44-.259-.688-.262z"/><path d="M74.263 39.876c.535-1.045 2.642-1.02 3.239 0 .634 1.084.565 2.296 0 3.398-.514 1-2.598 1.181-3.24 0-.609-1.123-.548-2.326 0-3.398"/><path d="M84.811 39.876c.526-1.045 2.594-1.02 3.18 0 .623 1.084.555 2.296 0 3.398-.505 1-2.55 1.181-3.18 0-.598-1.123-.538-2.326 0-3.398"/><path d="M81.025 49.496c.248.003.533.158.688.262 1.396.937 3.065 1.07 4.939.355 1.675-.64.76-3.046-.221-2.63-1.753.744-2.532.087-4.49-1.02-.287-.163-.714-.178-.892-.179h-.007c-.177 0-.604.016-.892.179-1.958 1.107-2.696 1.664-4.49 1.02-1.243-.446-1.944 1.99-.268 2.63 1.873.716 3.542.582 4.938-.355.155-.104.44-.259.688-.262z"/><path d="M90.444 82.704c2.825-1.915 4.807-4.865 4.988-8.843.084-1.831-.21-4.007-2.109-6.467-2.177-2.822-5.927-6.117-3.683-13.771a2.264 2.264 0 0 1 3.225-1.354c1.564.614 2.806.727 3.749.24 1.548-.802 2.03-2.878 2.02-5.274-.026-7.497-5.988-18.44-17.569-18.44-13.07 0-18.707 10.89-18.279 18.288.137 2.374.799 4.413 2.405 5.136 1.009.453 2.293.258 3.865-.498a2.27 2.27 0 0 1 3.019 1.033 2.226 2.226 0 0 1-1.044 2.988c-3.116 1.5-5.708 1.446-7.708.547-2.909-1.308-4.798-4.653-5.047-8.95-.536-9.267 6.418-23.015 22.789-23.015 14.463 0 22.053 13.531 22.087 22.895.016 4.353-1.633 7.796-4.445 9.251-1.381.715-3.101 1.015-5.162.636-.327 3.931 2.035 5.847 3.368 7.575 1.2 1.555 1.954 3.033 2.411 4.427.612-.162 1.333-.446 1.811-1.172.493-.749.689-1.877.528-3.558-.118-1.228.795-2.32 2.036-2.436s2.344.787 2.461 2.015c.333 3.478-.532 5.604-1.647 6.974-1.215 1.493-3.447 2.292-4.551 2.612q-.006.262-.017.52c-.439 9.638-8.46 15.09-17.092 15.708-8.567.613-17.535-3.582-19.93-12.7-.105-.4-.17-1.638-.48-3.186-.546-2.727-2.092-6.778-7.7-6.939a2 2 0 0 1-.3-.028 2 2 0 0 1-.263.025c-5.092.188-6.548 3.866-7.08 6.347-.305 1.42-.378 2.559-.478 2.94-1.935 7.365-8.156 11.535-15.005 12.353-10.051 1.2-21.36-4.832-21.743-18.208-8.886-4.32-13.858-16.6-7.849-26.788a2.273 2.273 0 0 1 3.09-.803 2.224 2.224 0 0 1 .811 3.057c-4.486 7.605-1.04 16.753 5.443 20.267q.106-.255.204-.464c.855-1.815 2.152-3.519 3.07-5.308.496-.969.88-1.961.814-3.062-.068-1.127-.618-2.323-1.78-3.711a2 2 0 0 1-.1-.13c-6.727-6.92-5.742-18.497-.896-27.033a2.26 2.26 0 0 1 1.464-1.083 2.28 2.28 0 0 1 1.794.342l4.907 3.373a34.8 34.8 0 0 1 14.202-.344l5.232-3.245a2.28 2.28 0 0 1 1.79-.263c.609.163 1.12.57 1.412 1.122 4.958 9.396 5.47 19.086-.388 26.428-.907 1.136-2.012 2.013-3.085 2.831a2.275 2.275 0 0 1-3.168-.407 2.22 2.22 0 0 1 .412-3.135c.79-.603 1.628-1.224 2.296-2.06 4.332-5.428 4.081-12.43.99-19.4l-3.849 2.387a2.28 2.28 0 0 1-1.66.294c-4.684-.968-9.367-.863-14.051.367a2.28 2.28 0 0 1-1.868-.324l-3.615-2.485c-2.995 6.601-3.523 14.684 1.455 19.656.06.06.408.54.408.54l-.202-.283c1.945 2.325 2.695 4.407 2.81 6.295.115 1.914-.433 3.67-1.297 5.353-.895 1.746-2.169 3.404-3.003 5.175-.33.7-.755 1.97-.99 3.118-.091.449-.192.865-.171 1.17l.019.135q.046.202.054.402c.635 4.116 2.742 7.156 5.538 9.133 3.363 1.595 6.632 1.534 6.663-.457.037-2.44 0-5.483 0-6.575 0-2.648 4.532-2.648 4.532 0v6.67c0 1.78 4.566 2.148 8.552-1.421a11.5 11.5 0 0 0 2.386-4.604c.38-1.449.673-12.22 11.761-12.63q.231-.008.45.028.203-.031.413-.025c7.46.213 10.35 4.794 11.557 8.764.67 2.205.727 4.182.864 4.705.69 2.626 2.123 4.677 3.99 6.185q0-.006-.003-.01c3.55 1.877 8 1.784 8.033-.318.037-2.44 0-5.483 0-6.575 0-2.648 4.532-2.648 4.532 0V81.9c0 1.439 3.226 2.347 6.597.804"/><path d="M53.924 6.599c2.713-2.44 6.656-2.082 8.79-.305 2.412 2.009 2.76 6.017.359 10.032-1.234 2.187-4.01 4.415-6.744 6.102a4.59 4.59 0 0 1-4.811 0c-2.733-1.687-5.509-3.914-6.74-6.097-2.406-4.018-2.058-8.028.355-10.037 2.134-1.777 6.077-2.134 8.79.305m-1.398 3.304c-1.328-2.213-3.962-2.315-5.29-1.208-.623.518-.884 1.316-.884 2.223 0 1.17.427 2.499 1.23 3.835l.023.04c1.013 1.809 3.385 3.573 5.645 4.968.411.254.935.254 1.346 0 2.261-1.395 4.633-3.16 5.646-4.967l.024-.04c.802-1.337 1.23-2.666 1.23-3.836 0-.907-.262-1.705-.885-2.223-1.328-1.107-3.962-1.005-5.29 1.208-.29.484-.823.781-1.398.781a1.63 1.63 0 0 1-1.397-.78"/></g><defs><clipPath id="clip0_337_3441"><path fill="#fff" d="M0 0h106v90H0z"/></clipPath></defs></svg>
